X:1
T:Canto Serioso
T:Canto Serioso
T:for Horn and Piano
T:Carl Nielsen (1865-1931) FS 132 
T:public domain - Mutopia-2007/10/13-1056
T:public domain - Mutopia-2007/10/13-1056
T:public domain - Mutopia-2007/10/13-1056
T:public domain - Mutopia-2007/10/13-1056
C:Carl Nielsen (1865-1931) FS 132
Z:public domain - Mutopia-2007/10/13-1056
%%score 1 { ( 2 3 6 ) | ( 4 5 ) }
L:1/8
Q:1/4=52
M:4/4
K:F
V:1 treble transpose=-7 nm="Horn in F"
V:2 bass nm="Piano"
V:3 bass 
V:6 bass 
V:4 bass 
V:5 bass 
V:1
[K:C]"^Andante sostenuto" z8 | z8 |!p! (G,6 A,2 | C3 E G2 !breath!A2 | G3 E C2 D2 | %5
 E2) !breath!G4 (F2 | E2 C2 G,3 A, |[K:bass] E,,4- !breath!E,,)(_E,,D,,C,, |!<(! G,,8!<)! | %9
!f!!>(! G,,,8-)!>)! | %10
!mf! G,,,2 z2[K:treble] !tenuto!c!tenuto!e/!tenuto!c/"^dim." !tenuto!G!tenuto!c/!tenuto!G/ | %11
 F4 !tenuto!E!tenuto!G/!tenuto!E/ !tenuto!C!tenuto!E/!tenuto!C/ | (_E4 _A,4- | %13
"^rall." A,4- A,) z z2 ||[Q:1/4=71]"^Adagio molto" z8 |!p! (_A,C_EF ^F/_A/_B (3A/F/A/(3F/=F/^F/ | %16
 .F) z z2 (CF(3_B,/_A,/B,/(3A,/G,/A,/ | G,) z (3(F/E/F/(3_E/D/E/ D2 G) z | %18
!<(! (3z/ .e/._d/(3.A/.E/._D/ (3z/ .^f/.=d/(3.A/.^F/.=D/ (3z/!<)!!f! ._e/!>(!._B/(3.F/._E/._B,/ (3E/.F/.B/(3.B/.B/.B/!>)! | %19
 (3z/!<(! .C/.E/(3.G/.c/.e/ (3z/ .C/.F/(3.A/.c/.f/!<)!!f! (3z/!>(! .A,/._D/(3.^F/.A/._d/(3A/.F/.D/(3.D/.D/.D/!>)! | %20
!<(! (3_D/D/D/(3D/D/D/ (3D/D/D/(3D/D/D/ (3D/D/D/(3D/D/D/!<)!!f! (D2 | %21
 (3.D/).D/._E/(3.D/.E/.D/(3.C/._B,/.B,/(3.B,/.B,/.B,/ (3.B,/.B,/.B,/(3.B,/.B,/.B,/(3.B,/._B/.B/(3.B/.B/.B/ | %22
 (3_B/B/B/"_dim."(3B/B/B/ (3B/B/B/B/(B/- BA) z2 | %23
 z4 z (3z/!f! !>!f/!>!d/(3!>!_B/!>!F/!>!D/(3!>!D/!>!D/!>!D/ | %24
 (3!>!D/!>!D/!>!D/(!>!D-D7/4d/4) (d3 c/4B/4A/4G/4) | f4- !breath!f/!>!e!>!_e/ (_d/e/d/B/ | %26
 _B/_A/^F/A/ F/=FE/ _E/=E/_E/=E/ _E/_DE/ | C2 D2 G,2-"^rall." G,) z || %28
[Q:1/4=92]"^Andante sostenuto" z8 |!p! C4{/E} (!breath!D2 CE | G3 A GB d2- | d3 e d2 _d2- | %32
 !breath!d)(A _d4 D^F | !breath!A6 G^F | =F8- | F_EDE D3 G |[Q:1/4=144]"^Allegro" C2) z2 z4 | %37
 z2 z!f! (d _BGcd | _BG c2-"_rall." cdBG |[Q:1/4=92]"^Andante""_dim." c6) z2 | %40
[Q:1/4=144]"^Allegro" G8- | G6 !>!G2- | G2"^rall." (!>!G6- | %43
[Q:1/4=92]"^Andante""_dim." GAED !breath!G4) |[K:bass][Q:1/4=144]"^Allegro"!f! C,8- | !breath!C,8 | %46
"^poco rall.""_dim." C,,8- |[Q:1/4=92]"^Andante" C,,8- |"_dim." !fermata!C,,8 |] %49
V:2
 A,6{/C} B,2 | A,3 C F2 [G,CEG]2 |[K:treble] [A,CA]4 G2 F2 | E2 _E4 D2 | %4
[K:bass] CD/C/ DC B,3 C/B,/ | A,3 (B,/A,/ [E,G,]3)[K:treble] a/g/ | f3 g/f/ ef/e/ d2- | d4 f4 | %8
 [EGce]3!<(! [=Acfa] [Gceg] [EGce]2 [_EGc_e]!<)! |!f! [Dd]2"_dim." c2 B2 [_A,_A]2 | %10
!mf! [G,CEG]4[K:bass] [F,CF]4 | [E,E]4"_dim." [_E,_E]4 | _ED/E/ D^C/D/ _D4 | =B,8 || %14
[K:treble]!mp! ([_G,B,][_A,_D][B,_G][D_A] [GB]/[A=B]/[_B_d] (3[A=B]/[G_B]/[A=B]/(3[G_B]/[DA]/[GB]/ | %15
 [_D_A]8) | B_d(3_A/_G/A/(3G/F/G/ [B,=DF]2 _E_D | %17
 (3F/=E/F/(3_E/=D/E/ _D2[K:bass]"_dim." [E,G,C]2 C2 | %18
!p!!<(! [B,,A,D]2 [D,G,=B,]2!>(! ([_A,_C]3!<)! [G,_B,])!>)! | %19
!<(! [C,F,A,]2 [F,B,D]2!<)!!>(! ([=C__E]3 [B,_D])!>)! | %20
 ([_A,C][B,_E][K:treble][C_A][_EB]"_cresc." [Ac]/[B_d]/[c_e]!f! (3[GB]/[FA]/[GB]/(3[FA]/[CG]/[FA]/ | %21
 [_EB]2- [EB]/[_A_c]/[EB]/[_CA]/ [_GB]/[A=B]/[_B_d]/[GB]/ [CB]/[Cd]/[Cc]/[CB]/) | %22
 [A,A]2"_dim." [_A,_A]6 |!p! z!<(! ([D,B,][G,_E][B,F])!<)!!ff! !>![E=G]/!>![F_A]/[GB]- [GB]2- | %24
 [GB]-!f!(3[GB]/!>![=EG]/!>![^F=A]/(3!>![G=B]/!>![FA]/!>![EG]/(3!>![EG]/!>![EG]/!>![EG]/ (3!>![EG]/!>![EG]/!>![EG]/(3!>![EG]/!>![=B,F]/!>![G,E]/(3!>![G,E]/!>![G,E]/!>![G,E]/[G,E]- | %25
 (3!>![G,E]/!>![C_E]/!>![G,D]/(3!>![G,D]/!>![G,D]/!>![G,D]/ (3([G,=E]/[_A,_D]/)!>![A,D]/(3!>![A,D]/!>![A,D]/!>![A,D]/[K:bass]!ff! [_E,_G,_E]4- | %26
"_dim." [E,G,E]4- [E,G,E] z z2 |"_dim." z2 (B,/C/B,/C/ B,2- B,/C/B,/C/) ||!p! (A,4{/C} B,2 A,C | %29
 F4) (F4 | F2 [A,C]4 DE | CD _E2- EDCE | [^F,D]3 [E,C] [G,=B,]4- | B,_B, A,2 G,4 | %34
!<(! B,DFG [_A,_A]2 [G,G]2!<)! |!>(! F4 F=EDE)!>)! |!f! F4 F4 | [A,F]8- | [A,-F]8 | %39
"_dim." _EFDC EF [B,D]2- | [B,D]2[K:treble] !>!_A!>!B (GF)!>!A!>!B | %41
 GF !tenuto![CF_A]2 !tenuto![DFB]4 | !tenuto![CEG]4 !tenuto![CF_A]2 !tenuto![DFB]2 | %43
 [CEG]6 [G,CE]2- | [G,CE]2!f! (FG) !tenuto![G,C_E]2 !tenuto![G,=B,D]2 | %45
 [A,CF]2!>(! [G,C_E]2 [G,=B,D]2 (FG)!>)! | [G,C_E]2"_dim." [G,=B,D]2 F2 G2 | %47
"_dim." [G,C_E]2 [G,=B,D]2 [A,CF]4 |"_dim." [A,FA]8 |] %49
V:3
 F,8 | F,4 A,2 x2 |[K:treble] x8 | A,4 F,4 |[K:bass] F,4 F,4 | F,4 x3[K:treble] c | d4 c2 c2- | %7
w: |||||||
 c2 B2 _d2 x2 | x8 | A4 F4 | x4[K:bass] x4 | C8 | _A,4 G,F,/G,/ F,=E,/F,/ | E,2 ^F,2 G,2 _D,2 || %14
w: |||||||
[K:treble] x8 | x8 | [_D_G]2 [_C_E]2 x2 .[B,G]2 | [A,=C]2 B,2[K:bass] x2 F,B, | x4 _E,4 | x8 | %20
w: ||||||
 x2[K:treble] x6 | x4 _D2 _G2 | [_E_G]4 F4 | x8 | x8 | x4[K:bass] x4 | x8 | %27
w: |||||||
 x2 (F,2- F,/=G,/F,/G,/ =E,2) || (F,4 F,3 G, | A,2{/D} C2) B,4- | B,2 x4 G,2- | G,2 G,4 A,2 | x8 | %33
w: rall. * * * * *||||||
 G,2 ^F,2 E,4 | =F,3 [G,B,] _E4 | [B,_E]4 [G,C]4 | (A,2 B,2 A,2 B,2) | x8 | x8 | A,3 x5 | %40
w: |||||||
 x2[K:treble] [CF]2 [CE]2 [CF]2 | [CE]2 x6 | x8 | x8 | x2 [A,C]2 x4 | x6 [A,C]2 | x4 [A,C]4 | x8 | %48
w: ||||||||
 x8 |] %49
w: |
V:4
 (C,6 _D,2 | [F,,C,]6 [C,,C,]2 | C,2 F,2 E,2 D,2 | [F,,C,]6 B,,2 | A,,4 D,4 | %5
 [F,,C,]4 [C,,C,]3 [EG] | A6 FG/F/ | EF/E/ DE/D/ _D3 B, | %8
 CD,/C,/ B,,A,,/B,,/ C,B,,/A,,/ B,,A,,/G,,/ | %9
 _G,,/=G,,/_G,,/E,,/ D,,/E,,/G,,/=G,,/ F,,/_A,,/G,,/F,,/ E,,/F,,/E,,/D,,/ | %10
 B,,C,/B,,/ G,,B,,/G,,/ A,,4 | G,,A,,/G,,/ E,,G,,/E,,/ F,,4 | F,,4 _G,,4 | %13
 =G,,^F,,/G,,/ F,,E,,/F,,/ E,,^D,,/E,,/ =F,,E,,/F,,/) || [_G,,_D,]8 | [_D,,_A,,_D,]8 | %16
 ([_G,,_D,B,]2 [_E,_A,]2 [=B,,=D,F,]2 B,,2 | %17
 [F,,F,]2 [B,,F,]2 (3=C,/=B,,/C,/(3_B,,/=A,,/B,,/(3_A,,/=G,,/A,,/(3G,,/^F,,/G,,/) | %18
 ^F,,2 =F,,2 _E,,4 | !tenuto!F,,2 !tenuto!_A,,2 _G,,4 | %20
 (_A,,[B,,_E,][C,_A,][E,B,] [A,C]/[B,_D]/[C_E] (3[B,D]/[A,C]/[B,D]/(3[A,C]/[G,B,]/[A,C]/ | %21
 [_E,B,]2- [E,B,]/[_A,_C]/[E,B,]/[_C,A,]/ [_G,,_G,]2 [_E,,_E,]>[_D,,_D,]) | %22
 [C,,=C,]2 [_C,,_C,]2- (3[C,,C,]/B,,,/B,,,/(3B,,,/B,,,/B,,,/(3B,,,/B,,,/B,,,/(3B,,,/B,,,/B,,,/ | %23
 z ([F,,B,,][G,,_E,][B,,F,]) !>![E,G,]/!>![F,_A,]/!>![G,B,]- [G,B,]2- | %24
 [G,B,] z z [^C,,^C,]- [C,,C,]2 [=C,,=C,]2- | %25
 [C,,C,]G,,- (3(G,,/_F,,/)!>!F,,/(3!>!F,,/!>!F,,/!>!F,,/ [=B,,,_G,,]4- | %26
 [B,,,G,,]4- [B,,,G,,] z z2 | _D,,/_E,,/D,,/E,,/ D,,2 C,,4 || C,4 _D,2 C,2- | C,2 _E,2 (D,4- | %30
 [F,,D,]2 [A,,=E,]4 =B,,C, | A,,=B,, C,2- C,B,,A,,C, | =B,,3 C, [G,,D,]4- | [G,,D,]2 D,,2 E,,4 | %34
 D,,4 C,,D,,_E,,G,, | B,,4) C,4 | _E,F,D,C, E,F,D,C, | _E,F, C,6- | C,3 _E,"^rall." C,4- | %39
 C,2 F,4 [B,,F,]2- | [B,,F,]2 !>!_A,!>!B, (G,F,)!>!A,!>!B, | %41
 (G,F,) !tenuto![F,_A,]2 !tenuto![B,,B,]4 | %42
 !tenuto![C,G,]4"^rall." !tenuto![F,,F,]2 !tenuto![B,,B,]2 | [C,G,]6 [C,,C,]2- | %44
 [C,,C,]2 !tenuto!F,,2 !tenuto!C,2 !tenuto!G,,2 | F,,2 C,2 G,,2 F,,2 | C,2 G,,2 F,,4 | %47
 C,2 G,,2 z2 [F,,C,]2- | [F,,C,]4 [F,,C,]4 |] %49
V:5
 F,,8 | x8 | F,,8 | x8 | F,,8 | x8 | D4 A,4- | A,3 G, F,4 | .C,2 x6 | x8 | C,,8 | C,,8 | %12
 =B,,,4 _B,,,4 | E,,2 x6 || x8 | x8 | x2 _C,_A,, x2 [_E,,_E,][=E,,=E,] | x8 | x8 | x8 | x8 | x8 | %22
 x8 | x8 | x8 | x8 | x8 | x8 || F,,4 F,,4- | F,,4 F,,4- | x8 | x8 | x8 | x8 | x8 | x8 | F,,8 | %37
 F,,8- | F,,8- | F,,6 x2 | x2 F,2 C,2 F,2 | C,2 x6 | x8 | x8 | x8 | x8 | x8 | x8 | x8 |] %49
V:6
 x8 | x8 |[K:treble] x8 | x8 |[K:bass] x8 | x7[K:treble] x | x8 | x6 _A2 | x8 | x8 | %10
 x4[K:bass] x4 | x8 | x8 | x8 ||[K:treble] x8 | x8 | x8 | x4[K:bass] x4 | x8 | x8 | %20
 x2[K:treble] x6 | x8 | x8 | x8 | x8 | x4[K:bass] x4 | x8 | x8 || x8 | x8 | x8 | x8 | x8 | x8 | %34
 x8 | x8 | x8 | x8 | x8 | x8 | x2[K:treble] x6 | x8 | x8 | x8 | x8 | x8 | x8 | x8 | x8 |] %49

